X:0955
T:La Triumph.
M:2/4
L:1/8
Q:1/4=120
N:upbeat rests added
I: :: :: :|
Z:Jack Campin * www.campin.me.uk * 2009
K:G
g|dBBG|cAAF|dgfe|e2dg|dBBG|cAAF|G2A2|G3:|
z|A2c2|B2d2|A2c2|B2d2|AAAc|BBBg|B2A2|G3:|
z|B2Bd|dcBA|A2Ac|c2B2|BBcd|efge|dcBA|G3:|
<end>
<start>
